static/images/tech-icons/dark/elastic-search.svg

<svg height="45" viewBox="0 0 130 45" width="130" xmlns="http://www.w3.org/2000/svg"><g fill="none"><path d="m44.3625 23.2125c0-3.7125-2.30625-6.975-5.775-8.23125.15-.7875.225-1.575.225-2.38125 0-6.91875-5.625-12.54375-12.525-12.54375-4.05 0-7.8 1.93125-10.1625 5.19375-1.1625-.9-2.5875-1.3875-4.06875-1.3875-3.675 0-6.65625 2.98125-6.65625 6.65625 0 .80625.15 1.59375.4125 2.325-3.45 1.2375-5.8125 4.55625-5.8125 8.25 0 3.73125 2.325 6.99375 5.79375 8.25-.15.76875-.225 1.575-.225 2.38125 0 6.9 5.60625 12.50625 12.50625 12.50625 4.05 0 7.8-1.95 10.14375-5.2125 1.1625.91875 2.5875 1.425 4.06875 1.425 3.675 0 6.65625-2.98125 6.65625-6.65625 0-.80625-.15-1.59375-.4125-2.325 3.45-1.2375 5.83125-4.55625 5.83125-8.25" fill="#fff"/><g fill="#000" transform="translate(1.5 1.5)"><path d="m15.9375 17.5875 9.7125 4.425 9.7875-8.5875c.15-.7125.20625-1.40625.20625-2.15625 0-6.0375-4.9125-10.95-10.95-10.95-3.61875 0-6.975 1.78125-9.01875 4.7625l-1.63125 8.45625z"/><path d="m5.8875 27.8625c-.15.7125-.20625 1.44375-.20625 2.19375 0 6.05625 4.93125 10.96875 10.9875 10.96875 3.6375 0 7.03125-1.8 9.075-4.8l1.6125-8.41875-2.15625-4.125-9.75-4.44375z"/><path d="m5.83125 11.0625 6.65625 1.575 1.4625-7.55625c-.9-.69375-2.025-1.06875-3.1875-1.06875-2.8875 0-5.25 2.34375-5.25 5.25 0 .61875.1125 1.2375.31875 1.8"/><path d="m5.25 12.65625c-2.9625.975-5.04375 3.825-5.04375 6.95625 0 3.05625 1.89375 5.775 4.725 6.8625l9.3375-8.4375-1.70625-3.65625z"/><path d="m27.43125 36.225c.91875.69375 2.025 1.0875 3.16875 1.0875 2.8875 0 5.25-2.34375 5.25-5.25 0-.6375-.1125-1.25625-.31875-1.81875l-6.6375-1.55625z"/><path d="m28.78125 26.94375 7.3125 1.70625c2.98125-.975 5.04375-3.825 5.04375-6.975 0-3.0375-1.89375-5.775-4.725-6.84375l-9.5625 8.38125z"/><path d="m60.525 29.5875.88125-.09375.05625 1.8c-2.325.31875-4.3125.4875-5.9625.4875-2.19375 0-3.75-.6375-4.66875-1.9125s-1.36875-3.2625-1.36875-5.94375c0-5.3625 2.1375-8.04375 6.39375-8.04375 2.0625 0 3.6.58125 4.6125 1.725s1.51875 2.9625 1.51875 5.41875l-.13125 1.74375h-10.0875c0 1.6875.3 2.94375.91875 3.75s1.66875 1.21875 3.1875 1.21875c1.5375.0375 3.075-.01875 4.65-.15zm-.825-6.61875c0-1.875-.3-3.20625-.9-3.975s-1.575-1.1625-2.925-1.1625-2.38125.4125-3.05625 1.21875-1.03125 2.11875-1.05 3.91875z"/><path d="m65.175 31.5v-21.9375h2.2875v21.9375z"/><path d="m81.91875 20.83125v7.51875c0 .76875 1.89375.91875 1.89375.91875l-.1125 2.025c-1.6125 0-2.94375.13125-3.75-.6375-1.8375.80625-3.65625 1.14375-5.49375 1.14375-1.40625 0-2.475-.39375-3.20625-1.2-.73125-.7875-1.10625-1.93125-1.10625-3.43125 0-1.48125.375-2.5875 1.125-3.28125s1.93125-1.14375 3.54375-1.29375l4.8-.45v-1.3125c0-1.03125-.225-1.78125-.675-2.23125s-1.06875-.675-1.8375-.675h-6.01875v-2.025h5.86875c1.725 0 2.98125.39375 3.76875 1.2.80625.7875 1.2 2.04375 1.2 3.73125zm-9.4125 6.225c0 1.875.76875 2.8125 2.325 2.8125 1.3875 0 2.75625-.225 4.0875-.69375l.69375-.24375v-5.04375l-4.51875.43125c-.91875.075-1.575.3375-1.9875.7875s-.6 1.10625-.6 1.95z"/><path d="m90.8625 17.94375c-2.2125 0-3.3375.76875-3.3375 2.325 0 .7125.2625 1.21875.76875 1.51875s1.66875.6 3.4875.91875 3.09375.75 3.84375 1.33125c.75.5625 1.125 1.63125 1.125 3.20625s-.50625 2.71875-1.51875 3.45-2.475 1.10625-4.425 1.10625c-1.25625 0-5.475-.46875-5.475-.46875l.13125-1.9875c2.41875.225 4.18125.4125 5.3625.4125s2.08125-.1875 2.7-.5625.9375-1.0125.9375-1.89375-.2625-1.48125-.7875-1.8-1.6875-.61875-3.4875-.9-3.075-.69375-3.825-1.25625c-.75-.54375-1.125-1.575-1.125-3.05625s.525-2.5875 1.575-3.3 2.3625-1.06875 3.91875-1.06875c1.2375 0 5.55.31875 5.55.31875v2.00625c-2.26875-.13125-4.125-.3-5.41875-.3z"/><path d="m107.8125 18.20625h-4.85625v7.3125c0 1.74375.13125 2.90625.375 3.45.2625.54375.8625.825 1.81875.825l2.71875-.1875.15 1.89375c-1.36875.225-2.4.3375-3.1125.3375-1.59375 0-2.68125-.39375-3.3-1.1625s-.91875-2.25-.91875-4.425v-8.04375h-2.175v-1.9875h2.175v-4.6875h2.26875v4.66875h4.85625z"/><path d="m111 12.75v-2.64375h2.2875v2.6625zm0 18.75v-15.28125h2.2875v15.28125z"/><path d="m123.225 15.9c.675 0 1.81875.13125 3.43125.375l.73125.09375-.09375 1.85625c-1.63125-.1875-2.83125-.28125-3.6-.28125-1.725 0-2.90625.4125-3.525 1.2375s-.9375 2.3625-.9375 4.59375.28125 3.7875.8625 4.66875 1.78125 1.3125 3.61875 1.3125l3.6-.28125.09375 1.89375c-1.89375.28125-3.31875.43125-4.25625.43125-2.38125 0-4.03125-.61875-4.93125-1.8375s-1.36875-3.28125-1.36875-6.1875.4875-4.95 1.4625-6.1125c.99375-1.1625 2.625-1.7625 4.9125-1.7625z"/></g></g></svg>

<?xml version="1.0" encoding="UTF-8"?>
<svg width="130px" height="45px" viewBox="0 0 130 45" version="1.1" xmlns="http://www.w3.org/2000/svg" xmlns:xlink="http://www.w3.org/1999/xlink">
    <title>elastic-search</title>
    <g id="Racing-post,-Zopa,-ladbrokes" stroke="none" stroke-width="1" fill="none" fill-rule="evenodd">
        <g id="Artboard-Copy-3" transform="translate(-32.000000, -6.000000)" fill-rule="nonzero">
            <g id="elastic-search" transform="translate(32.000000, 6.000000)">
                <path d="M44.3625,23.2125 C44.3625,19.5 42.05625,16.2375 38.5875,14.98125 C38.7375,14.19375 38.8125,13.40625 38.8125,12.6 C38.8125,5.68125 33.1875,0.05625 26.2875,0.05625 C22.2375,0.05625 18.4875,1.9875 16.125,5.25 C14.9625,4.35 13.5375,3.8625 12.05625,3.8625 C8.38125,3.8625 5.4,6.84375 5.4,10.51875 C5.4,11.325 5.55,12.1125 5.8125,12.84375 C2.3625,14.08125 -2.66453526e-15,17.4 -2.66453526e-15,21.09375 C-2.66453526e-15,24.825 2.325,28.0875 5.79375,29.34375 C5.64375,30.1125 5.56875,30.91875 5.56875,31.725 C5.56875,38.625 11.175,44.23125 18.075,44.23125 C22.125,44.23125 25.875,42.28125 28.21875,39.01875 C29.38125,39.9375 30.80625,40.44375 32.2875,40.44375 C35.9625,40.44375 38.94375,37.4625 38.94375,33.7875 C38.94375,32.98125 38.79375,32.19375 38.53125,31.4625 C41.98125,30.225 44.3625,26.90625 44.3625,23.2125" id="Path" fill="#FFFFFF"></path>
                <g id="Group" transform="translate(1.500000, 1.500000)" fill="#000000">
                    <path d="M15.9375,17.5875 L25.65,22.0125 L35.4375,13.425 C35.5875,12.7125 35.64375,12.01875 35.64375,11.26875 C35.64375,5.23125 30.73125,0.31875 24.69375,0.31875 C21.075,0.31875 17.71875,2.1 15.675,5.08125 L14.04375,13.5375 L15.9375,17.5875 Z" id="Path"></path>
                    <path d="M5.8875,27.8625 C5.7375,28.575 5.68125,29.30625 5.68125,30.05625 C5.68125,36.1125 10.6125,41.025 16.66875,41.025 C20.30625,41.025 23.7,39.225 25.74375,36.225 L27.35625,27.80625 L25.2,23.68125 L15.45,19.2375 L5.8875,27.8625 Z" id="Path"></path>
                    <path d="M5.83125,11.0625 L12.4875,12.6375 L13.95,5.08125 C13.05,4.3875 11.925,4.0125 10.7625,4.0125 C7.875,4.0125 5.5125,6.35625 5.5125,9.2625 C5.5125,9.88125 5.625,10.5 5.83125,11.0625" id="Path"></path>
                    <path d="M5.25,12.65625 C2.2875,13.63125 0.20625,16.48125 0.20625,19.6125 C0.20625,22.66875 2.1,25.3875 4.93125,26.475 L14.26875,18.0375 L12.5625,14.38125 L5.25,12.65625 Z" id="Path"></path>
                    <path d="M27.43125,36.225 C28.35,36.91875 29.45625,37.3125 30.6,37.3125 C33.4875,37.3125 35.85,34.96875 35.85,32.0625 C35.85,31.425 35.7375,30.80625 35.53125,30.24375 L28.89375,28.6875 L27.43125,36.225 Z" id="Path"></path>
                    <path d="M28.78125,26.94375 L36.09375,28.65 C39.075,27.675 41.1375,24.825 41.1375,21.675 C41.1375,18.6375 39.24375,15.9 36.4125,14.83125 L26.85,23.2125 L28.78125,26.94375 Z" id="Path"></path>
                    <path d="M60.525,29.5875 L61.40625,29.49375 L61.4625,31.29375 C59.1375,31.6125 57.15,31.78125 55.5,31.78125 C53.30625,31.78125 51.75,31.14375 50.83125,29.86875 C49.9125,28.59375 49.4625,26.60625 49.4625,23.925 C49.4625,18.5625 51.6,15.88125 55.85625,15.88125 C57.91875,15.88125 59.45625,16.4625 60.46875,17.60625 C61.48125,18.75 61.9875,20.56875 61.9875,23.025 L61.85625,24.76875 L51.76875,24.76875 C51.76875,26.45625 52.06875,27.7125 52.6875,28.51875 C53.30625,29.325 54.35625,29.7375 55.875,29.7375 C57.4125,29.775 58.95,29.71875 60.525,29.5875 L60.525,29.5875 Z M59.7,22.96875 C59.7,21.09375 59.4,19.7625 58.8,18.99375 C58.2,18.225 57.225,17.83125 55.875,17.83125 C54.525,17.83125 53.49375,18.24375 52.81875,19.05 C52.14375,19.85625 51.7875,21.16875 51.76875,22.96875 L59.7,22.96875 Z" id="Shape"></path>
                    <polygon id="Path" points="65.175 31.5 65.175 9.5625 67.4625 9.5625 67.4625 31.5"></polygon>
                    <path d="M81.91875,20.83125 L81.91875,28.35 C81.91875,29.11875 83.8125,29.26875 83.8125,29.26875 L83.7,31.29375 C82.0875,31.29375 80.75625,31.425 79.95,30.65625 C78.1125,31.4625 76.29375,31.8 74.45625,31.8 C73.05,31.8 71.98125,31.40625 71.25,30.6 C70.51875,29.8125 70.14375,28.66875 70.14375,27.16875 C70.14375,25.6875 70.51875,24.58125 71.26875,23.8875 C72.01875,23.19375 73.2,22.74375 74.8125,22.59375 L79.6125,22.14375 L79.6125,20.83125 C79.6125,19.8 79.3875,19.05 78.9375,18.6 C78.4875,18.15 77.86875,17.925 77.1,17.925 L71.08125,17.925 L71.08125,15.9 L76.95,15.9 C78.675,15.9 79.93125,16.29375 80.71875,17.1 C81.525,17.8875 81.91875,19.14375 81.91875,20.83125 L81.91875,20.83125 Z M72.50625,27.05625 C72.50625,28.93125 73.275,29.86875 74.83125,29.86875 C76.21875,29.86875 77.5875,29.64375 78.91875,29.175 L79.6125,28.93125 L79.6125,23.8875 L75.09375,24.31875 C74.175,24.39375 73.51875,24.65625 73.10625,25.10625 C72.69375,25.55625 72.50625,26.2125 72.50625,27.05625 L72.50625,27.05625 Z" id="Shape"></path>
                    <path d="M90.8625,17.94375 C88.65,17.94375 87.525,18.7125 87.525,20.26875 C87.525,20.98125 87.7875,21.4875 88.29375,21.7875 C88.8,22.0875 89.9625,22.3875 91.78125,22.70625 C93.6,23.025 94.875,23.45625 95.625,24.0375 C96.375,24.6 96.75,25.66875 96.75,27.24375 C96.75,28.81875 96.24375,29.9625 95.23125,30.69375 C94.21875,31.425 92.75625,31.8 90.80625,31.8 C89.55,31.8 85.33125,31.33125 85.33125,31.33125 L85.4625,29.34375 C87.88125,29.56875 89.64375,29.75625 90.825,29.75625 C92.00625,29.75625 92.90625,29.56875 93.525,29.19375 C94.14375,28.81875 94.4625,28.18125 94.4625,27.3 C94.4625,26.41875 94.2,25.81875 93.675,25.5 C93.15,25.18125 91.9875,24.88125 90.1875,24.6 C88.3875,24.31875 87.1125,23.90625 86.3625,23.34375 C85.6125,22.8 85.2375,21.76875 85.2375,20.2875 C85.2375,18.80625 85.7625,17.7 86.8125,16.9875 C87.8625,16.275 89.175,15.91875 90.73125,15.91875 C91.96875,15.91875 96.28125,16.2375 96.28125,16.2375 L96.28125,18.24375 C94.0125,18.1125 92.15625,17.94375 90.8625,17.94375 L90.8625,17.94375 Z" id="Path"></path>
                    <path d="M107.8125,18.20625 L102.95625,18.20625 L102.95625,25.51875 C102.95625,27.2625 103.0875,28.425 103.33125,28.96875 C103.59375,29.5125 104.19375,29.79375 105.15,29.79375 L107.86875,29.60625 L108.01875,31.5 C106.65,31.725 105.61875,31.8375 104.90625,31.8375 C103.3125,31.8375 102.225,31.44375 101.60625,30.675 C100.9875,29.90625 100.6875,28.425 100.6875,26.25 L100.6875,18.20625 L98.5125,18.20625 L98.5125,16.21875 L100.6875,16.21875 L100.6875,11.53125 L102.95625,11.53125 L102.95625,16.2 L107.8125,16.2 L107.8125,18.20625 Z" id="Path"></path>
                    <path d="M111,12.75 L111,10.10625 L113.2875,10.10625 L113.2875,12.76875 L111,12.75 Z M111,31.5 L111,16.21875 L113.2875,16.21875 L113.2875,31.5 L111,31.5 Z" id="Shape"></path>
                    <path d="M123.225,15.9 C123.9,15.9 125.04375,16.03125 126.65625,16.275 L127.3875,16.36875 L127.29375,18.225 C125.6625,18.0375 124.4625,17.94375 123.69375,17.94375 C121.96875,17.94375 120.7875,18.35625 120.16875,19.18125 C119.55,20.00625 119.23125,21.54375 119.23125,23.775 C119.23125,26.00625 119.5125,27.5625 120.09375,28.44375 C120.675,29.325 121.875,29.75625 123.7125,29.75625 L127.3125,29.475 L127.40625,31.36875 C125.5125,31.65 124.0875,31.8 123.15,31.8 C120.76875,31.8 119.11875,31.18125 118.21875,29.9625 C117.31875,28.74375 116.85,26.68125 116.85,23.775 C116.85,20.86875 117.3375,18.825 118.3125,17.6625 C119.30625,16.5 120.9375,15.9 123.225,15.9 Z" id="Path"></path>
                </g>
            </g>
        </g>
    </g>
</svg>
